!!!COM: Anon.
!!!OTL: Bom dia, papai e mama~e
!!!OTL: Romanceiro Folclorico do Brasil
!!!CNT: Brasil
!!!OCY: Brasil
!!!ODT: <1971///
!!!PSR: Irmaos Vitale
!!!PSP: Sao Paulo, Brasil
!!!PDT: 1950///
!!!PPE: Rossini Tavares de Lima
!!!PPG: pages 32-33
!! Romance: Antoniho
!! Place: Sao Paulo, Sao Paulo, Brasil
**kern
*clefG2
*k[b-e-a-]
*M3/4
*MM100
8e-
8g
=
4c
4c
8e-
8g
=
2c
8g
8g
=
4a-
4g
8e-
8f
=
2g
8g
8g
=
4cc
8b-
8b-
8a-
8g
=
4d
4d
8a-
8g
=
4a-
4f
8e-
8d
=
2c
==
*-
